X: 10
T: Bunch Of Keys, The
Z: thelightisahead
S: https://thesession.org/tunes/344#setting46257
R: reel
M: 4/4
L: 1/8
K: Gmix
DEFD G4|(3GGG dG eGdG|DEFE {G}FEFG|AF-~F2 DFCF|
DG{A}GF G3A|Bz GA Bcde|fage fdcA|GBA^F DGG=F|
DEFD G4|dGdG eGdG|DE{G}FE {G}FEFG|AGFE DCB,A,|
G,A,B,G, G3A-|ABGA Bcde|fage fdcA|GBA^F DGG2||
|:(3ggg ^fa g4|_bg-~g2 _bg-~g2|d3(e- ef^fg)|(3aag ^fg afgf|
dg-~g2 agbg|ag^fa gfde|fage fdcA|GBA^F DGG2:|
BG (3GGG BGdG|BG (3GGG Bdgd|AF (3FFF AFdF|AF (3FFF ABcA|
BG (3GGG DG (3GGG|BGdG Bcde|fage fdcA|GBA^F DGGA|
BG (3GGG FDCD|BG (3GGG BGdG|AF (3FFF AFdF|AF (3FFF ABcA|
BG (3GGG DG (3GGG|ABGA Bcde|fage fdcA|GBA^F DGz2|G4||

